build/img/icon-q_scifi.svg

<svg width="28" height="30" viewBox="0 0 28 30" fill="none" xmlns="http://www.w3.org/2000/svg">
<path d="M14 8.07756e-06C13.0654 8.07756e-06 12.185 0.379865 11.4231 0.98215C11.0776 0.817829 10.6944 0.714293 10.2855 0.714293C8.85829 0.714293 7.68537 1.84204 7.68537 3.21429C7.68537 3.98047 8.05417 4.67393 8.6256 5.13393C8.55042 5.32101 8.47573 5.50822 8.40505 5.70315C7.40219 5.5219 6.45274 5.41872 5.57275 5.41293C3.30164 5.39793 1.38862 6.00108 0.488547 7.5C-0.0655475 8.42275 -0.121963 9.53118 0.186744 10.6473C0.495452 11.7635 1.147 12.9219 2.0672 14.096C2.30329 14.3972 2.56201 14.6976 2.83332 15C2.56195 15.3028 2.30333 15.6027 2.0672 15.904C1.147 17.0781 0.495452 18.2254 0.186744 19.3415C-0.107124 20.404 -0.0633039 21.4701 0.4189 22.3661C0.316265 22.6336 0.256391 22.9141 0.256391 23.2143C0.256391 24.5865 1.42931 25.7143 2.85653 25.7143C3.76739 25.7143 4.57388 25.2538 5.03879 24.5647C6.06595 24.607 7.19695 24.5139 8.40505 24.2969C8.54232 24.6751 8.69223 25.0312 8.84615 25.3795C9.44411 26.7322 10.1654 27.846 11.0168 28.6607C11.8682 29.4754 12.892 30 14 30C15.108 30 16.1318 29.4754 16.9832 28.6607C17.8346 27.846 18.5559 26.7322 19.1539 25.3795C19.3078 25.0312 19.4577 24.6751 19.5949 24.2969C19.9917 24.3688 20.3766 24.4306 20.7557 24.4754C21.0132 25.5939 22.0498 26.4397 23.2862 26.4397C24.7134 26.4397 25.8864 25.312 25.8864 23.9397C25.8864 23.9358 25.8864 23.9326 25.8864 23.9287C26.5658 23.5958 27.1386 23.121 27.5115 22.5001C28.0655 21.5773 28.122 20.4578 27.8133 19.3416C27.5045 18.2254 26.853 17.0782 25.9328 15.9041C25.6967 15.6028 25.438 15.3028 25.1667 15.0001C25.438 14.6977 25.6967 14.3973 25.9328 14.0961C26.853 12.922 27.5045 11.7635 27.8133 10.6474C28.122 9.53125 28.0655 8.42282 27.5115 7.50007C26.6114 6.00114 24.6984 5.39814 22.4272 5.413C21.5473 5.41871 20.5978 5.52197 19.5949 5.70322C19.4577 5.32468 19.3078 4.95764 19.1539 4.60942C18.5559 3.25664 17.8346 2.14286 16.9832 1.32822C16.1318 0.51347 15.108 8.07756e-06 14 8.07756e-06ZM14 1.42858C14.6357 1.42858 15.2789 1.71265 15.9385 2.34376C16.5981 2.97486 17.2394 3.94615 17.7841 5.17858C17.9014 5.44383 18.013 5.7274 18.1208 6.01565C16.8001 6.34658 15.4175 6.81743 14 7.41072C12.5825 6.81743 11.1999 6.34658 9.87924 6.01565C9.91945 5.90812 9.96536 5.80751 10.0069 5.70315C10.0977 5.71244 10.1923 5.71423 10.2855 5.71423C11.7127 5.71423 12.8857 4.58648 12.8857 3.21423C12.8857 2.75823 12.7628 2.33383 12.5374 1.96423C13.0327 1.6058 13.518 1.42851 14 1.42851V1.42858ZM10.2855 2.14286C10.9097 2.14286 11.3999 2.61411 11.3999 3.21429C11.3999 3.81447 10.9097 4.28572 10.2855 4.28572C9.66128 4.28572 9.17116 3.81447 9.17116 3.21429C9.17116 2.61411 9.66128 2.14286 10.2855 2.14286ZM5.57275 6.8415C6.30122 6.84614 7.11054 6.92461 7.97556 7.0759C7.61535 8.34015 7.33661 9.72882 7.16302 11.2054C5.92162 12.0883 4.81293 13.0079 3.8548 13.9397C3.64828 13.7052 3.4438 13.4675 3.26281 13.2366C2.42442 12.1669 1.86524 11.1436 1.62611 10.279C1.38698 9.41439 1.44763 8.7435 1.7654 8.21429C2.28212 7.35379 3.57929 6.82843 5.57275 6.8415ZM22.4272 6.8415C24.4207 6.82864 25.7179 7.35379 26.2346 8.21429C26.5524 8.7435 26.613 9.41439 26.3739 10.279C26.1348 11.1436 25.5756 12.1669 24.7372 13.2366C24.5562 13.4675 24.3517 13.7052 24.1452 13.9397C23.1851 13.006 22.0698 12.0899 20.8254 11.2054C20.6516 9.73036 20.3841 8.33911 20.0244 7.0759C20.8895 6.92461 21.6988 6.84629 22.4272 6.8415ZM9.43814 7.39958C10.3109 7.61719 11.2258 7.89183 12.166 8.23661C11.6011 8.51265 11.0376 8.80389 10.4712 9.11829C9.90043 9.43518 9.35795 9.77629 8.82293 10.1116C8.9822 9.14797 9.19588 8.24154 9.43814 7.39958ZM18.5735 7.39958C18.8144 8.23715 19.0183 9.14264 19.1771 10.1004C18.6437 9.76632 18.0977 9.43411 17.5288 9.11829C16.9624 8.80389 16.3989 8.51265 15.834 8.23661C16.778 7.8904 17.6975 7.61754 18.5735 7.39958ZM14 8.98436C14.9198 9.38936 15.8549 9.84036 16.7859 10.3571C17.7177 10.8744 18.5955 11.423 19.4208 11.9866C19.5157 12.9586 19.5717 13.9618 19.5717 15C19.5717 16.0342 19.515 17.0448 19.4208 18.0134C18.5953 18.5761 17.718 19.1143 16.7859 19.6317C15.8515 20.1504 14.9118 20.6101 13.9884 21.0156C13.072 20.6105 12.1421 20.1468 11.2141 19.6317C10.282 19.1143 9.40471 18.5761 8.57917 18.0134C8.48498 17.0448 8.42827 16.0342 8.42827 15C8.42827 13.9666 8.48517 12.9659 8.57917 11.9978C9.40611 11.4327 10.2802 10.8756 11.2141 10.3571C12.1451 9.84036 13.0802 9.38936 14 8.98436ZM14 12.5C12.5728 12.5 11.3999 13.6277 11.3999 15C11.3999 16.3722 12.5728 17.5 14 17.5C15.4272 17.5 16.6001 16.3722 16.6001 15C16.6001 13.6277 15.4272 12.5 14 12.5ZM7.00051 13.1473C6.96675 13.7577 6.94247 14.3692 6.94247 15C6.94247 15.6273 6.96699 16.246 7.00051 16.8527C6.21757 16.242 5.4984 15.619 4.86468 15C5.49903 14.3791 6.21665 13.7601 7.00051 13.1473ZM20.9995 13.1473C21.7833 13.7601 22.501 14.3791 23.1353 15C22.5016 15.619 21.7824 16.242 20.9995 16.8527C21.033 16.246 21.0575 15.6273 21.0575 15C21.0575 14.3689 21.0334 13.7581 20.9995 13.1473ZM3.8548 16.0714C4.81372 17.0021 5.93209 17.9131 7.17463 18.7946C7.34776 20.2642 7.60573 21.6538 7.96395 22.9129C7.05243 23.0727 6.21371 23.1488 5.45668 23.1473C5.41771 21.8069 4.25948 20.7143 2.85653 20.7143C2.3687 20.7143 1.91337 20.8544 1.52164 21.0826C1.45732 20.6876 1.48199 20.2309 1.62611 19.7098C1.86524 18.8452 2.42442 17.8331 3.26281 16.7634C3.44357 16.5328 3.64859 16.3059 3.8548 16.0714ZM24.1452 16.0714C24.3514 16.3059 24.5564 16.5328 24.7372 16.7634C25.5756 17.8331 26.1348 18.8452 26.3739 19.7098C26.613 20.5744 26.5524 21.2565 26.2346 21.7857C26.0546 22.0854 25.7942 22.34 25.4337 22.5446C24.9635 21.8862 24.1726 21.4397 23.2862 21.4397C22.1843 21.4397 21.2361 22.12 20.8602 23.058C20.587 23.0241 20.311 22.9743 20.0244 22.9241C20.3845 21.6614 20.6516 20.2693 20.8254 18.7946C22.0679 17.9131 23.1863 17.0021 24.1452 16.0714ZM8.82293 19.8996C9.35629 20.2332 9.90234 20.5547 10.4712 20.8705C11.0375 21.1849 11.6011 21.4875 12.166 21.7634C11.2225 22.1086 10.3017 22.3827 9.42653 22.6004C9.18543 21.762 8.98172 20.8584 8.82293 19.8996ZM19.1771 19.8996C19.0176 20.8623 18.8159 21.7703 18.5735 22.6116C17.6975 22.3931 16.7779 22.1108 15.834 21.7634C16.3992 21.4868 16.9615 21.1854 17.5288 20.8705C18.0977 20.5547 18.6437 20.2332 19.1771 19.8996ZM2.85653 22.1429C3.48076 22.1429 3.97088 22.6141 3.97088 23.2143C3.97088 23.8145 3.48076 24.2857 2.85653 24.2857C2.2323 24.2857 1.74219 23.8145 1.74219 23.2143C1.74219 22.6141 2.2323 22.1429 2.85653 22.1429ZM14.0116 22.5893C15.4269 23.1806 16.8144 23.6428 18.1324 23.9732C18.023 24.2665 17.9033 24.5519 17.7841 24.8214C17.2394 26.0539 16.5981 27.0251 15.9385 27.6562C15.2789 28.2874 14.6357 28.5714 14 28.5714C13.3643 28.5714 12.7211 28.2874 12.0615 27.6562C11.4019 27.0251 10.7606 26.0539 10.2159 24.8214C10.0986 24.5562 9.98703 24.2726 9.87924 23.9844C11.2019 23.6528 12.5916 23.1856 14.0116 22.5893ZM23.2862 22.8683C23.9105 22.8683 24.4006 23.3396 24.4006 23.9397C24.4006 24.5399 23.9105 25.0112 23.2862 25.0112C22.662 25.0112 22.1719 24.5399 22.1719 23.9397C22.1719 23.3396 22.662 22.8683 23.2862 22.8683Z" fill="white"/>
</svg>

<svg width="28" height="30" fill="none" xmlns="http://www.w3.org/2000/svg"><path d="M14 0c-.935 0-1.815.38-2.577.982a2.642 2.642 0 00-1.137-.268c-1.428 0-2.6 1.128-2.6 2.5 0 .766.368 1.46.94 1.92-.076.187-.15.374-.221.57a16.633 16.633 0 00-2.832-.291C3.302 5.398 1.389 6 .489 7.5c-.555.923-.611 2.031-.302 3.147.308 1.117.96 2.275 1.88 3.449.236.301.495.602.766.904-.271.303-.53.603-.766.904-.92 1.174-1.572 2.321-1.88 3.438-.294 1.062-.25 2.128.232 3.024a2.344 2.344 0 00-.163.848c0 1.373 1.173 2.5 2.6 2.5.911 0 1.718-.46 2.183-1.15 1.027.043 2.158-.05 3.366-.267.137.378.287.734.441 1.082.598 1.353 1.32 2.467 2.17 3.282C11.869 29.475 12.893 30 14 30s2.132-.525 2.983-1.34c.852-.814 1.573-1.928 2.17-3.28.155-.349.305-.705.442-1.083.397.072.782.134 1.16.178.258 1.119 1.295 1.965 2.531 1.965 1.427 0 2.6-1.128 2.6-2.5v-.011c.68-.333 1.253-.808 1.626-1.429.553-.923.61-2.042.301-3.158-.308-1.117-.96-2.264-1.88-3.438a18.038 18.038 0 00-.766-.904c.271-.302.53-.603.766-.904.92-1.174 1.572-2.332 1.88-3.449.309-1.116.253-2.224-.301-3.147-.9-1.499-2.814-2.102-5.085-2.087-.88.006-1.83.109-2.832.29a17.284 17.284 0 00-.441-1.094c-.598-1.352-1.32-2.466-2.17-3.28C16.131.512 15.107 0 14 0zm0 1.429c.636 0 1.279.284 1.938.915.66.63 1.301 1.602 1.846 2.835.117.265.229.548.337.837-1.32.33-2.703.801-4.121 1.395a29.027 29.027 0 00-4.12-1.395c.04-.108.085-.208.127-.313.09.01.185.011.279.011 1.427 0 2.6-1.128 2.6-2.5 0-.456-.123-.88-.349-1.25.496-.358.981-.535 1.463-.535zm-3.714.714c.624 0 1.114.471 1.114 1.071s-.49 1.072-1.114 1.072c-.625 0-1.115-.472-1.115-1.072 0-.6.49-1.071 1.115-1.071zM5.573 6.84c.728.005 1.538.084 2.403.235a26.364 26.364 0 00-.813 4.13 28.157 28.157 0 00-3.308 2.734 16.361 16.361 0 01-.592-.703c-.839-1.07-1.398-2.093-1.637-2.958-.239-.865-.178-1.536.14-2.065.516-.86 1.813-1.386 3.807-1.373zm16.854 0c1.994-.012 3.29.513 3.808 1.373.317.53.378 1.2.139 2.065-.24.865-.798 1.888-1.637 2.958-.18.23-.385.468-.592.703a28.2 28.2 0 00-3.32-2.735 26.485 26.485 0 00-.8-4.13c.865-.15 1.674-.229 2.402-.234zM9.438 7.4c.873.217 1.788.492 2.728.837-.565.276-1.128.567-1.695.881-.57.317-1.113.658-1.648.994.16-.964.373-1.87.615-2.712zm9.135 0c.241.837.445 1.743.604 2.7a36.248 36.248 0 00-1.648-.982 36.496 36.496 0 00-1.695-.881c.944-.347 1.864-.62 2.74-.837zM14 8.984c.92.405 1.855.856 2.786 1.373.932.517 1.81 1.066 2.635 1.63.095.972.15 1.975.15 3.013 0 1.034-.056 2.045-.15 3.013a33.775 33.775 0 01-5.433 3.003 34.367 34.367 0 01-2.774-1.384 33.783 33.783 0 01-2.635-1.619A31.18 31.18 0 018.43 15c0-1.033.056-2.034.15-3.002a33.43 33.43 0 012.635-1.64A33.755 33.755 0 0114 8.983zm0 3.516c-1.427 0-2.6 1.128-2.6 2.5s1.173 2.5 2.6 2.5 2.6-1.128 2.6-2.5-1.173-2.5-2.6-2.5zm-7 .647A34.06 34.06 0 006.942 15c0 .627.025 1.246.059 1.853A25.61 25.61 0 014.865 15 25.6 25.6 0 017 13.147zm14 0A25.6 25.6 0 0123.135 15 25.612 25.612 0 0121 16.853c.034-.607.059-1.226.059-1.853 0-.631-.025-1.242-.058-1.853zM3.855 16.071c.959.931 2.077 1.842 3.32 2.724.173 1.47.43 2.859.789 4.118-.912.16-1.75.236-2.507.234-.04-1.34-1.198-2.433-2.6-2.433-.488 0-.944.14-1.335.369-.065-.395-.04-.852.104-1.373.24-.865.798-1.877 1.637-2.947.18-.23.386-.457.592-.692zm20.29 0c.206.235.411.462.592.692.839 1.07 1.398 2.082 1.637 2.947.239.864.178 1.546-.14 2.076-.18.3-.44.554-.8.759a2.65 2.65 0 00-2.148-1.105c-1.102 0-2.05.68-2.426 1.618-.273-.034-.549-.084-.836-.134a26.36 26.36 0 00.801-4.13c1.243-.88 2.361-1.792 3.32-2.723zM8.823 19.9c.533.333 1.08.655 1.648.97.566.315 1.13.617 1.695.893-.944.346-1.864.62-2.74.837a23.953 23.953 0 01-.603-2.7zm10.354 0a24.03 24.03 0 01-.604 2.712 26.666 26.666 0 01-2.739-.849 37.177 37.177 0 001.695-.893 36.576 36.576 0 001.648-.97zm-16.32 2.243c.624 0 1.114.471 1.114 1.071s-.49 1.072-1.114 1.072c-.625 0-1.115-.472-1.115-1.072 0-.6.49-1.071 1.115-1.071zm11.155.446a29.128 29.128 0 004.12 1.384c-.109.294-.229.579-.348.848-.545 1.233-1.186 2.204-1.845 2.835-.66.631-1.303.915-1.939.915-.636 0-1.279-.284-1.938-.915-.66-.63-1.301-1.602-1.846-2.835a15.587 15.587 0 01-.337-.837 28.882 28.882 0 004.133-1.395zm9.274.28c.624 0 1.115.47 1.115 1.07 0 .6-.49 1.072-1.115 1.072-.624 0-1.114-.471-1.114-1.071s.49-1.072 1.114-1.072z" fill="#fff"/></svg>
